X: 402
T: Vesperae – Lauda Jerusalem
C: Jerzy Brykner
L: 1/4
M: 3/2
N: Derived from pl-cz--iii-50--009_brykner-jerzy--vesperae-lauda-jerusalem.krn
V: 1
V: 2 clef=bass
V: 3 clef=treble
V: 4 clef=treble
V: 5 clef=bass
K: Bb
[V:1] d2c2B2 | 
[V:2] B,2A,2G,2 | 
[V:3] dbcaBg | 
[V:4] dbcaBg | 
[V:5] B,2A,2G,2 | 
[V:1] A2>A2B2- | 
[V:2] F,2>E,2D,2 | 
[V:3] A/F/G/A/ B/c/d/e/fg/a/ | 
[V:4] A/F/G/A/ B/c/d/e/fg/a/ | 
[V:5] F,2>E,2D,2 | 
[V:1] B!breath!e2<c2c | 
[V:2] G,2E,2F,2 | 
[V:3] bdcbca | 
[V:4] bdcbca | 
[V:5] G,2E,2F,2 | 
[V:1] !breath!dd2!breath!g2e- | 
[V:2] B,,B,2G,2C- | 
[V:3] bf2b2g- | 
[V:4] bf2b2g- | 
[V:5] B,,B,2G,2C- | 
[V:1] ef2d2e- | 
[V:2] C!breath!A,2B,2G, | 
[V:3] gc'2f2b- | 
[V:4] gc'2f2b- | 
[V:5] CA,2B,2G, | 
[V:1] ecc4 | 
[V:2] E,2F,4 | 
[V:3] ba/g/b2a2 | 
[V:4] ba/g/b2a2 | 
[V:5] E,2F,4 | 
[V:1] B2d3c/ B/ | 
[V:2] B,,4zB,- | 
[V:3] b4z2 | 
[V:4] b4z2 | 
[V:5] B,,4B,2 | 
[V:1] cF2<B2A/G/ | 
[V:2] B,A,A,G,/F,/ =E,/F,/G,- | 
[V:3] z24 | 
[V:4] z24 | 
[V:5] F,2G,2C,2 | 
[V:1] A2DdcB | 
[V:2] G,F,/ F,/G,B,A,G, | 
[V:3]  | 
[V:4]  | 
[V:5] F,2>B,2A,G, | 
[V:1] AG/F/G4 | 
[V:2] F,D,F,2=E,2 | 
[V:3]  | 
[V:4]  | 
[V:5] F,A,,B,,2C,2 | 
[V:1] F2zdBc | 
[V:2] !breath!F,F,B,/C/B,/A,/G,C/ C/ | 
[V:3]  | 
[V:4]  | 
[V:5] F,2D,2E,2 | 
[V:1] AdB!breath!AGG/ G/ | 
[V:2] F,B,G,F,E,2 | 
[V:3] z6 | 
[V:4] z6 | 
[V:5] F,B,/A,/G,F,E,2 | 
[V:1] ^F2Bdc!breath!F/ F/ | 
[V:2] !breath!D,2B,,B,A,A,/ A,/ | 
[V:3] z2B/c/d/e/fc/d/ | 
[V:4] z2z2F/F/G/A/ | 
[V:5] D,2B,,B,A,2 | 
[V:1] ed/ c/Bcd2 | 
[V:2] G,E,/ E,/G,A,B,2 | 
[V:3] e/e/f/g/efd2 | 
[V:4] BG/A/BcB2 | 
[V:5] G,E,G,A,B,B,, | 
[V:1] cfd/c/B/A/GG/ G/ | 
[V:2] F,F,B,/A,/G,/F,/E,D,/ D,/ | 
[V:3] cff/f/f/f/gb | 
[V:4] AcB/c/B/A/GB | 
[V:5] F,2B,,2E,D, | 
[V:1] e3d2c- | 
[V:2] C,F,B,,2C,2 | 
[V:3] babfe3/e/ | 
[V:4] e2>d2GA | 
[V:5] C,F,B,,2C,2 | 
[V:1] cBA4 | 
[V:2] D,G,D,4 | 
[V:3] d3/c//B//A4 | 
[V:4] ^FGG2^F2 | 
[V:5] D,G,D,4 | 
[V:1] G2BBB/_A/A | 
[V:2] G,,4z2 | 
[V:3] G4z2 | 
[V:4] G4z2 | 
[V:5] G,,4C,2 | 
[V:1] _A/c/ B/A/GEeB/ B/ | 
[V:2] z6 | 
[V:3] z12 | 
[V:4] z12 | 
[V:5] D,2E,2G,2 | 
[V:1] c_A/G/FG/ G/GF | 
[V:2] zF,!breath!B,B,CC | 
[V:3]  | 
[V:4]  | 
[V:5] _A,F,D,E,_A,,2 | 
[V:1] G2z2z2 | 
[V:2] =B,B,C_A,/ C/F,G,/_A,/ | 
[V:3] d=B/d/G_a2g/f/ | 
[V:4] =Bd/B/Gc_Be/d/ | 
[V:5] G,,2E,F,D,E,/F,/ | 
[V:1] z12 | 
[V:2] B,CCB,/ B,/B,_A,/ A,/ | 
[V:3] ee!trill!f3/e//f//g_a/f/ | 
[V:4] ecFBcc | 
[V:5] G,C,D,2=E,F, | 
[V:1]  | 
[V:2] A,G,F,2zD, | 
[V:3] deddzf | 
[V:4] BG/A/BBzB/_A/ | 
[V:5] B,,E,B,,2{/C,}B,,x | 
[V:1] z2zBB_A | 
[V:2] E,_A,,B,,4 | 
[V:3] ed/c/e2d2 | 
[V:4] GcG2F2 | 
[V:5] C,_A,,B,,4 | 
[V:1] GF/E/c2!breath!BB | 
[V:2] E,2z_A,2G, | 
[V:3] e2z2z2 | 
[V:4] E2z2z2 | 
[V:5] E,2_A,2E,2 | 
[V:1] ec=A/F/G/A/ B/A/B/c/ | 
[V:2] CG,/ G,/=A,G,!breath!F,E, | 
[V:3] z12 | 
[V:4] z12 | 
[V:5] C,2F,E,D,C, | 
[V:1] dc/ B/B2A2 | 
[V:2] D,!breath!G,D,2C,2 | 
[V:3]  | 
[V:4]  | 
[V:5] B,,E,F,2F,,2 | 
[V:1] B2d2d2 | 
[V:2] !breath!B,,2B,,2D,2 | 
[V:3] zd/e/fffb | 
[V:4] zB/c/dddf | 
[V:5] B,,2B,,2D,2 | 
[V:1] c>ccdBc | 
[V:2] F,>F,F,B,G,E, | 
[V:3] a/g/f2fbg | 
[V:4] c/B/A2dBc | 
[V:5] F,2F,,B,G,E, | 
[V:1] cBB2A2 | 
[V:2] D,G,C,4 | 
[V:3] fb{/f}e4 | 
[V:4] cBB2A2 | 
[V:5] D,G,C,4 | 
[V:1] B2zdcB/ A/ | 
[V:2] B,,2zB,=E,F,/ F,/ | 
[V:3] d2zb2a | 
[V:4] B2zfgf/=e/ | 
[V:5] B,,2zB,=E,F, | 
[V:1] BBBA/ A/d2 | 
[V:2] G,D,=E,F,/ F,/D,B,, | 
[V:3] gf=ed/c/fd | 
[V:4] ddcAFB | 
[V:5] G,D,=E,F,D,B,, | 
[V:1] GA2<B2B | 
[V:2] C,A,,2<G,,2G,, | 
[V:3] =ef2e/d/e2 | 
[V:4] GA!trill!B4 | 
[V:5] C,A,,G,,4 | 
[V:1] AcB/A/ B/c/AG/ F/ | 
[V:2] F,,2z2z2 | 
[V:3] f2z2zA | 
[V:4] A2z2zF | 
[V:5] F,,F,2=E,F,2 | 
[V:1] edgfe2 | 
[V:2] z12 | 
[V:3] BAG/A/B2A | 
[V:4] BAG/A/B2A | 
[V:5] G,F,_E,D,C,F, | 
[V:1] dd/ e/fe/ d/cc | 
[V:2]  | 
[V:3] BBBBAA | 
[V:4] BBBBAA | 
[V:5] B,,2D,B,,F,F,, | 
[V:1] zFGA/ A/B2- | 
[V:2] z2z2F,F,/ F,/ | 
[V:3] zFEFFB- | 
[V:4] zFEFFB- | 
[V:5] D,2E,C,B,,D, | 
[V:1] Bc/d/B2A2 | 
[V:2] G,G,/ G,/F,C,F,E, | 
[V:3] Bc/d/F(3d/c/B/!trill!c2 | 
[V:4] Bc/d/F(3d/c/B/c2 | 
[V:5] E,C,F,2F,,2 | 
[V:1] B2z2z2 | 
[V:2] D,2B,3A,/G,/ | 
[V:3] Bd2g2a/b/ | 
[V:4] Bd2g2a/b/ | 
[V:5] B,,2G,2=E,2 | 
[V:1] z6 | 
[V:2] A,D,/ =E,/F,2=E,2 | 
[V:3] d(3f/=e/d/d2^c2 | 
[V:4] d=e/f/d2^c2 | 
[V:5] F,G,A,2A,,2 | 
[V:1] z2ddcf | 
[V:2] D,2B,,B,A,F, | 
[V:3] d2fffg/a/ | 
[V:4] d2ddcf | 
[V:5] D,2B,,B,A,F, | 
[V:1] ed/c<dd/!breath!cd | 
[V:2] G,A,B,>B,!breath!F,B,, | 
[V:3] ba/g<fg/ab/a/ | 
[V:4] ed/c<dd/cd | 
[V:5] G,A,B,2F,B,, | 
[V:1] !breath!eddc!breath!dd/ d/ | 
[V:2] C,D,E,2D,=B,,/ B,,/ | 
[V:3] g^fg2^fg/g/ | 
[V:4] ed2cdd/d/ | 
[V:5] C,D,E,2D,=B,, | 
[V:1] ec/ c/Fcdd | 
[V:2] C,C,/ C,/A,,A,,B,,B,, | 
[V:3] g/g/g/g/ f/f/f/f/ f/f/f/f/ | 
[V:4] e/e/e/e/ c/c/c/c/ d/d/d/d/ | 
[V:5] C,C,A,,A,,B,,B,, | 
[V:1] d/B/c/d/c2-c/A/B/c/ | 
[V:2] E,2-E,/C,/D,/E,/D,2- | 
[V:3] gg-g/e/f/g/ff- | 
[V:4] d/B/c/d/cc-c/A/B/c/ | 
[V:5] E,2-E,C,D,2- | 
[V:1] B!breath!BB2-B/G/A/B/ | 
[V:2] D,E,/F,/G,2-G,/E,/F,/G,/ | 
[V:3] fg/a/bb-b/g/a/b/ | 
[V:4] Bf-f/d/e/f/ee- | 
[V:5] D,E,/F,/G,3E, | 
[V:1] ABB2A2 | 
[V:2] F,!breath!B,F,4 | 
[V:3] abb2a2 | 
[V:4] edd2c2 | 
[V:5] F,B,F,4 | 
[V:1] B6 |]  
[V:2] B,,6 |]  
[V:3] b6 |]  
[V:4] B6 |]  
[V:5] B,,6 |]  

